logos/ecma.svg

<?xml version="1.0" encoding="UTF-8"?>
<svg width="512px" height="137px" viewBox="0 0 512 137" version="1.1" xmlns="http://www.w3.org/2000/svg" preserveAspectRatio="xMidYMid">
    <title>ecma international</title>
    <g>
        <polyline fill="#CBD7DE" transform="translate(117.309942, 68.257998) scale(-1, 1) rotate(-180.000000) translate(-117.309942, -68.257998) " points="234.619883 1.46654851e-14 0 1.46654851e-14 0 136.515996 234.619883 136.515996 234.619883 1.46654851e-14"></polyline>
        <path d="M42.6013072,20.1434403 C39.576333,22.2542074 35.7779154,25.1258964 32.9625043,27.8544826 C28.9248022,31.5173653 25.6246302,35.9838255 23.3187479,40.9071142 C25.1112487,35.7567874 27.9825249,30.7784592 32.2223598,26.7358035 C35.4957,24.0595049 39.0028208,21.8923223 42.6013072,20.1434403 L42.6013072,20.1434403 Z M81.6116959,84.0361131 C78.4443068,88.8396907 72.3738562,91.674228 66.5414517,93.5249332 C49.2200894,100.353967 24.5292054,87.3316068 20.8687994,64.8795944 C20.6339181,63.8338427 20.24699,61.4409979 20.3409701,59.6508362 C21.9078087,73.3832063 30.2319917,85.4341179 41.5408325,90.5638049 C52.6879945,95.92053 65.851806,94.9738496 74.8721018,88.6305404 C75.3375989,88.2659033 75.8019952,87.8737464 76.2432749,87.4870935 C74.6662539,88.300303 73.0021328,88.9882975 71.2815961,89.5400691 C65.180461,92.4805576 57.9226694,93.6460202 50.7062951,92.0980326 C36.5040248,89.8716824 23.627795,76.9401379 21.4052976,60.8094189 C21.2251806,59.7664193 21.1042312,58.7014038 21.029515,57.6336363 C20.6022704,57.9432339 20.3409701,58.7014038 20.3409701,59.6508362 C20.1023736,58.550045 20.1023736,57.4506298 20.1554868,56.3374547 C20.0012384,51.177496 21.1639491,45.8606745 23.3187479,40.9071142 C22.4824217,43.4650777 21.9588579,46.049185 21.672377,48.6291644 C22.6990024,43.6026766 24.8140351,38.7702032 28.0335741,34.8830343 C30.150258,32.7062198 32.5201238,27.926034 35.3860337,26.3918063 C46.2853801,17.7464674 62.822979,14.8114829 73.9852769,21.171304 C75.5133127,21.5827247 77.0365325,22.0244172 78.4119711,22.8211148 C76.6285518,22.2294396 74.6264878,21.8345307 73.0257998,21.2731272 L72.4920537,21.2676233 C72.0308222,21.0048094 71.8013072,20.8795944 71.5658755,20.7516274 C63.3250774,19.7113797 46.44871,17.8840663 36.0481596,26.6504922 C33.0952872,28.7695153 30.8092191,31.5572689 28.6668043,34.4165741 C29.7616787,33.6680361 31.5251462,32.6553082 32.5889233,31.5352531 C37.8284142,26.302367 45.026075,21.5703408 52.0343997,21.0048094 C48.8024768,22.3243828 46.0262814,23.8943863 42.9695218,25.7450914 C41.3865841,26.4743656 38.850774,26.8940423 37.701548,28.2342555 C31.1521156,33.8235228 25.5562436,39.550389 24.54957,48.1489442 C24.3964224,48.9924255 24.9420021,49.6584041 24.6688682,50.427582 C26.3206054,40.9071142 32.2852425,33.8648025 39.7790162,28.2493914 C40.795872,27.056409 41.9434469,26.5638049 42.9695218,25.7450914 C44.2794634,25.2745032 45.4414861,24.8218028 46.4046784,24.3140629 C57.5307878,20.1558242 59.5163399,24.7172277 69.4933609,24.8617065 C64.9934641,23.7210116 57.3014104,21.6171245 53.4087375,21.3639425 C60.4081183,19.921906 73.6181631,23.4843415 79.6520124,27.9755696 C87.1522532,33.0942487 85.6471964,33.3240388 89.5204678,39.8709944 C89.8590987,40.4062542 90.1890609,41.6253804 90.4675611,43.1018166 C92.8206398,47.6329483 94.1692466,52.7763952 94.1692466,58.2363195 C94.1692466,68.7117237 89.2506364,78.0244172 81.6116959,84.0361131 L81.6116959,84.0361131 Z M26.7237702,51.2036398 C26.0653595,55.4499418 25.8696938,59.7898111 26.7855521,64.1007846 C26.698452,63.2504234 26.6275886,62.5665569 26.6684555,62.2404475 C26.254558,57.0405851 26.6544204,52.7929071 27.1306502,50.0326731 C27.0113519,50.4000622 26.8769178,50.7798352 26.7237702,51.2036398 C26.9070519,50.3849263 27.1263846,49.5703408 27.377365,48.7805232 C27.7922257,46.8334987 28.1755762,46.0574409 28.0659099,46.7770832 C31.3925009,38.0601929 38.4100447,31.3302308 46.1923633,28.1530722 C38.5883729,29.0983766 28.5162711,39.4747096 26.7237702,51.2036398 L26.7237702,51.2036398 Z M48.8970072,88.6470522 C42.5384245,87.3205988 36.3175783,83.8076989 31.7498452,77.5827247 C34.8108703,81.4616377 38.4626075,83.546261 42.0262814,84.798411 C41.7048504,84.5631169 41.3919505,84.3291988 41.0829033,84.0870247 C38.3024424,82.4385899 35.6919161,80.4571658 33.3558996,77.9748816 C32.7254214,77.1671761 32.4378397,76.1833439 31.8493292,75.4692057 L30.6028208,73.5896047 C28.9501204,72.0278572 27.9627107,70.1578881 26.8882009,68.176464 C22.2227726,57.8840663 22.7839009,45.0681049 29.1865153,34.2927351 C17.6099071,50.3230068 22.1765394,73.2277196 35.8772618,83.3701344 C41.5785346,87.8682425 48.1858961,90.0643209 54.674097,90.422078 C52.6756106,90.0106573 50.7477124,89.4024702 48.8970072,88.6470522 Z M69.9281734,25.2235916 C68.8499484,25.0323291 70.5157207,25.4987894 75.3638803,28.3622225 C75.7847953,28.6043966 76.2410733,28.8974822 76.7173031,29.2098317 C78.6070863,30.2115517 80.3949088,31.4017822 82.0481596,32.7516274 C77.2752666,28.1324323 71.4110767,25.2001998 69.9281734,25.2235916" fill="#EE8421" transform="translate(57.148069, 56.545748) scale(-1, 1) rotate(-180.000000) translate(-57.148069, -56.545748) "></path>
        <path d="M123.042449,62.3281734 C123.042449,73.005848 129.889095,75.5528036 140.513244,75.5528036 L158.292398,75.5528036 L158.292398,91.4537324 C158.292398,91.4537324 146.083247,91.4537324 137.72549,91.4537324 C116.709735,91.4537324 104.682628,84.0839353 104.682628,56.2765738 C104.682628,32.2077743 108.614929,19.5555556 135.95473,19.5555556 C157.648435,19.5555556 162.919849,28.4183007 162.919849,47.6147231 C162.919849,51.2679739 162.919849,62.4685243 162.919849,62.4685243 L123.042449,62.3281734 Z M145.703476,47.6931545 C145.703476,40.6549708 145.736498,33.7695218 134.939938,33.7695218 C124.277124,33.7695218 122.915583,40.368765 122.915583,47.6931545 L145.703476,47.6931545 M296.246302,19.5555556 L234.619883,19.5555556 L234.619883,91.4537324 L250.026832,91.4537324 L250.026832,34.9597523 L260.893017,34.9597523 L260.893017,34.9666323 C264.590299,34.9666323 267.605091,37.7777778 268.001376,41.377365 L268.001376,91.4537324 L283.408325,91.4537324 L283.408325,34.9597523 L294.193326,34.9597523 L294.193326,34.9666323 C298.154799,34.9666323 301.378741,38.1905745 301.378741,42.1520468 L301.378741,42.1520468 L301.378741,91.4537324 L316.784314,91.4537324 L316.784314,40.0963192 C316.784314,28.7595459 307.592707,19.5555556 296.246302,19.5555556 M195.594083,34.9666323 L195.594083,34.9597523 L224.353629,34.9597523 L224.353629,19.5555556 L192.913657,19.5555556 L192.904025,19.5927073 C182.77537,19.8995528 174.513932,27.5266598 173.199862,37.369109 L172.993464,37.369109 L172.993464,70.749226 L173.199862,70.749226 L172.993464,70.9143447 C172.993464,82.0309598 181.853457,91.0794634 192.904025,91.4165807 L192.913657,91.4537324 L224.353629,91.4537324 L224.353629,76.0412797 L195.594083,76.0412797 C191.627107,76.0412797 188.403165,72.8173375 188.403165,68.8503612 L188.403165,42.1520468 C188.403165,38.1905745 191.627107,34.9666323 195.594083,34.9666323 M378.410733,40.0963192 C378.410733,28.7595459 369.213622,19.5555556 357.867217,19.5555556 C351.570691,19.5555556 327.056072,19.5555556 327.056072,19.5555556 L327.056072,34.9597523 L355.816993,34.9597523 L355.816993,34.9666323 C360.646715,34.9666323 363.00516,38.1905745 363.00516,42.1520468 C363.00516,42.1520468 363.00516,43.2404541 360.73753,45.0251118 C357.797042,47.3285174 345.609907,50.6529068 338.966632,53.3071895 L338.966632,53.2741658 C328.604059,56.7416581 323.844513,63.2129343 323.844513,73.3512212 C323.844513,86.5276918 329.645683,91.6174751 341.048504,91.6174751 L378.410733,91.6174751 C378.080495,83.8816649 378.410733,40.0963192 378.410733,40.0963192 L378.410733,40.0963192 Z M363.00516,76.4251806 C363.00516,76.4251806 345.398005,76.4251806 341.044376,76.4251806 C339.662883,76.4251806 338.859305,76.4251806 338.751978,75.4413485 C337.706226,66.0240798 343.424837,66.380461 363.00516,59.6353629 L363.00516,76.4251806" fill="#231F20"></path>
        <path d="M250.249742,113.465428 L254.874441,113.465428 L254.874441,136.515996 L250.249742,136.515996 L250.249742,113.465428 M260.586171,113.465428 L266.26763,113.465428 L275.05332,130.702442 L275.116615,130.702442 L275.116615,113.465428 L279.543172,113.465428 L279.543172,136.515996 L273.897489,136.515996 L265.078775,119.277606 L265.012728,119.277606 L265.012728,136.515996 L260.586171,136.515996 L260.586171,113.465428 M289.846577,117.096663 L283.24183,117.096663 L283.24183,113.465428 L301.073271,113.465428 L301.073271,117.096663 L294.4699,117.096663 L294.4699,136.515996 L289.846577,136.515996 L289.846577,117.096663 M305.004472,113.465428 L318.608875,113.465428 L318.608875,117.096663 L309.626419,117.096663 L309.626419,122.778122 L317.850705,122.778122 L317.850705,126.409357 L309.626419,126.409357 L309.626419,132.883385 L318.676299,132.883385 L318.676299,136.515996 L305.004472,136.515996 L305.004472,113.465428 M323.960096,113.465428 L328.945304,113.465428 C333.900241,113.465428 339.810114,113.30031 339.810114,119.705538 C339.810114,122.414861 337.993808,124.660475 335.056072,125.055384 L335.056072,125.122807 C336.310974,125.220502 337.03612,126.47678 337.498452,127.500516 L341.19711,136.515996 L336.045408,136.515996 L333.271414,129.314069 C332.610939,127.599587 332.016512,126.939112 330.068111,126.939112 L328.582043,126.939112 L328.582043,136.515996 L323.960096,136.515996 L323.960096,113.465428 Z M328.582043,123.305126 L330.102511,123.305126 C332.379773,123.305126 334.988648,122.974888 334.988648,120.101823 C334.988648,117.327829 332.414173,117.096663 330.102511,117.096663 L328.582043,117.096663 L328.582043,123.305126 M345.292054,113.465428 L350.973512,113.465428 L359.75645,130.702442 L359.823873,130.702442 L359.823873,113.465428 L364.247678,113.465428 L364.247678,136.515996 L358.600619,136.515996 L349.783282,119.277606 L349.71861,119.277606 L349.71861,136.515996 L345.292054,136.515996 L345.292054,113.465428 M382.178191,113.465428 L391.226694,136.515996 L386.109391,136.515996 L384.126591,131.230822 L374.78225,131.230822 L372.766426,136.515996 L367.980736,136.515996 L376.961816,113.465428 L382.178191,113.465428 Z M407.975232,113.465428 L407.975232,117.096663 L401.371861,117.096663 L401.371861,136.515996 L396.747162,136.515996 L396.747162,117.096663 L390.143791,117.096663 L390.143791,113.465428 L407.975232,113.465428 Z M379.504644,118.088751 L379.439972,118.088751 L376.101823,127.599587 L382.840041,127.599587 L379.504644,118.088751 Z M411.508772,113.465428 L416.132095,113.465428 L416.132095,136.515996 L411.508772,136.515996 L411.508772,113.465428 M432.249054,113.069143 C439.481252,113.069143 443.541796,117.956656 443.541796,124.923289 C443.541796,131.892673 439.5473,136.910905 432.249054,136.910905 C424.850361,136.910905 420.95356,131.991744 420.95356,124.923289 C420.95356,117.857585 424.917785,113.069143 432.249054,113.069143 Z M432.249054,133.278294 C436.970072,133.278294 438.72033,129.084279 438.72033,124.923289 C438.72033,120.862745 436.839353,116.700378 432.249054,116.700378 C427.658755,116.700378 425.775026,120.862745 425.775026,124.923289 C425.775026,129.084279 427.52666,133.278294 432.249054,133.278294 M448.529756,113.465428 L454.208462,113.465428 L462.992776,130.702442 L463.0602,130.702442 L463.0602,113.465428 L467.484004,113.465428 L467.484004,136.515996 L461.838321,136.515996 L453.019608,119.277606 L452.956312,119.277606 L452.956312,136.515996 L448.529756,136.515996 L448.529756,113.465428 M480.198142,113.465428 L485.414517,113.465428 L494.464396,136.515996 L489.347093,136.515996 L487.362917,131.230822 L478.018576,131.230822 L476.004128,136.515996 L471.217062,136.515996 L480.198142,113.465428 Z M482.74097,118.088751 L482.676299,118.088751 L479.338149,127.599587 L486.076367,127.599587 L482.74097,118.088751 M498.427245,113.465428 L503.050568,113.465428 L503.050568,132.883385 L512,132.883385 L512,136.515996 L498.427245,136.515996 L498.427245,113.465428" fill="#CBD7DE"></path>
    </g>
</svg>

<svg preserveAspectRatio="xMidYMid" viewBox="0 0 512 137" xmlns="http://www.w3.org/2000/svg">
  <path fill="#CBD7DE" d="M234.62 136.516H0V0h234.62v136.516"/>
  <path fill="#EE8421" d="M42.601 92.948c-3.025-2.11-6.823-4.982-9.638-7.711a41.39 41.39 0 0 1-9.644-13.053c1.792 5.15 4.664 10.129 8.903 14.172 3.274 2.676 6.78 4.843 10.38 6.592Zm39.01-63.893c-3.167-4.803-9.237-7.638-15.07-9.488-17.32-6.83-42.012 6.193-45.672 28.645-.235 1.046-.622 3.438-.528 5.229 1.567-13.733 9.891-25.784 21.2-30.913 11.147-5.357 24.31-4.41 33.331 1.933.466.365.93.757 1.371 1.143a32.476 32.476 0 0 0-4.961-2.053c-6.102-2.94-13.36-4.106-20.576-2.558-14.202 2.227-27.078 15.158-29.3 31.29a31.707 31.707 0 0 0-.376 3.175c-.428-.31-.689-1.068-.689-2.017-.239 1.1-.239 2.2-.186 3.313-.154 5.16 1.009 10.477 3.164 15.43a38.414 38.414 0 0 1-1.647-7.722c1.027 5.027 3.142 9.86 6.362 13.746 2.116 2.177 4.486 6.957 7.352 8.492 10.9 8.645 27.437 11.58 38.6 5.22 1.527-.411 3.05-.853 4.426-1.65-1.783.592-3.786.987-5.386 1.548l-.534.006c-.461.263-.69.388-.926.516-8.24 1.04-25.117 2.867-35.518-5.899-2.953-2.119-5.239-4.907-7.381-7.766 1.095.748 2.858 1.761 3.922 2.881 5.24 5.233 12.437 9.965 19.445 10.53-3.232-1.319-6.008-2.889-9.064-4.74-1.583-.729-4.12-1.149-5.268-2.489-6.55-5.589-12.146-11.316-13.152-19.914-.154-.844.392-1.51.119-2.28 1.652 9.521 7.616 16.564 15.11 22.18 1.017 1.192 2.164 1.685 3.19 2.503 1.31.471 2.472.924 3.436 1.431 11.126 4.159 13.111-.403 23.088-.547-4.5 1.14-12.192 3.244-16.084 3.498 7 1.442 20.21-2.12 26.243-6.612 7.5-5.119 5.995-5.349 9.868-11.895.34-.536.67-1.755.948-3.231a32.747 32.747 0 0 0 3.701-15.135c0-10.475-4.918-19.788-12.557-25.8ZM26.725 61.888c-.659-4.246-.854-8.586.062-12.897-.088.85-.158 1.534-.118 1.86-.413 5.2-.014 9.448.463 12.208a38.01 38.01 0 0 0-.407-1.171c.183.819.402 1.633.653 2.423.415 1.947.799 2.723.689 2.003 3.327 8.717 10.344 15.447 18.126 18.624-7.604-.945-17.676-11.321-19.468-23.05Zm22.173-37.444c-6.359 1.327-12.58 4.84-17.147 11.065 3.06-3.88 6.713-5.964 10.276-7.216-.321.235-.634.47-.943.711-2.78 1.649-5.391 3.63-7.727 6.113-.63.807-.918 1.791-1.507 2.505l-1.246 1.88c-1.653 1.562-2.64 3.432-3.715 5.413-4.665 10.292-4.104 23.108 2.299 33.884-11.577-16.03-7.01-38.935 6.69-49.078 5.702-4.498 12.309-6.694 18.797-7.052a32.778 32.778 0 0 0-5.777 1.775Zm21.031 63.424c-1.078.191.588-.275 5.436-3.139.42-.242.877-.535 1.353-.847a32.523 32.523 0 0 0 5.331-3.542c-4.773 4.62-10.637 7.551-12.12 7.528"/>
  <path fill="#231F20" d="M123.042 62.328c0 10.678 6.847 13.225 17.471 13.225h17.78v15.9h-20.568c-21.015 0-33.042-7.37-33.042-35.176 0-24.07 3.932-36.721 31.272-36.721 21.693 0 26.965 8.862 26.965 28.059v14.854l-39.878-.14Zm22.661-14.635c0-7.038.033-13.923-10.763-13.923-10.663 0-12.024 6.599-12.024 13.923h22.787m150.543-28.137H234.62v71.898h15.407V34.96h10.866v.007c3.697 0 6.712 2.81 7.108 6.41v50.077h15.407V34.96h10.785v.007c3.962 0 7.186 3.224 7.186 7.185v49.302h15.405V40.096c0-11.336-9.191-20.54-20.538-20.54m-100.652 15.41v-.006h28.76V19.556h-31.44l-.01.037c-10.129.307-18.39 7.934-19.704 17.776h-.207v33.38h.207l-.207.165c0 11.117 8.86 20.165 19.911 20.503l.01.037h31.44V76.04h-28.76a7.197 7.197 0 0 1-7.19-7.19V42.151c0-3.961 3.223-7.185 7.19-7.185m182.817 5.13c0-11.337-9.197-20.541-20.544-20.541h-30.81V34.96h28.76v.007c4.83 0 7.188 3.224 7.188 7.185 0 0 0 1.088-2.267 2.873-2.941 2.304-15.128 5.628-21.771 8.282v-.033c-10.363 3.468-15.122 9.939-15.122 20.077 0 13.177 5.8 18.266 17.204 18.266h37.362c-.33-7.735 0-51.52 0-51.52Zm-15.406 36.328h-21.96c-1.382 0-2.186 0-2.293-.984-1.046-9.417 4.673-9.06 24.253-15.806v16.79"/>
  <path fill="#CBD7DE" d="M250.25 113.465h4.624v23.051h-4.624v-23.05m10.336 0h5.682l8.785 17.236h.064v-17.237h4.426v23.051h-5.646l-8.818-17.238h-.066v17.238h-4.427v-23.05m29.26 3.63h-6.604v-3.63h17.831v3.63h-6.603v19.42h-4.623v-19.42m15.157-3.63h13.605v3.63h-8.983v5.682h8.225v3.631h-8.225v6.474h9.05v3.633h-13.672v-23.05m18.956 0h4.985c4.955 0 10.865-.166 10.865 6.24 0 2.709-1.816 4.954-4.754 5.35v.067c1.255.098 1.98 1.354 2.442 2.378l3.7 9.015h-5.153l-2.774-7.202c-.66-1.714-1.254-2.375-3.203-2.375h-1.486v9.577h-4.622v-23.05Zm4.622 9.84h1.52c2.278 0 4.887-.331 4.887-3.204 0-2.774-2.575-3.005-4.886-3.005h-1.521v6.208m16.71-9.84h5.682l8.782 17.237h.068v-17.237h4.424v23.051H358.6l-8.818-17.238h-.064v17.238h-4.427v-23.05m36.886 0 9.049 23.05h-5.118l-1.982-5.285h-9.345l-2.016 5.285h-4.785l8.98-23.05h5.217Zm25.797 0v3.63h-6.603v19.42h-4.625v-19.42h-6.603v-3.63h17.831Zm-28.47 4.623h-.065l-3.338 9.51h6.738l-3.335-9.51Zm32.004-4.624h4.623v23.051h-4.623v-23.05m20.74-.397c7.232 0 11.293 4.888 11.293 11.854 0 6.97-3.995 11.988-11.293 11.988-7.399 0-11.295-4.92-11.295-11.988 0-7.065 3.964-11.854 11.295-11.854Zm0 20.21c4.721 0 6.471-4.195 6.471-8.356 0-4.06-1.88-8.223-6.47-8.223-4.591 0-6.475 4.163-6.475 8.223 0 4.161 1.752 8.355 6.474 8.355m16.28-19.813h5.68l8.784 17.237h.067v-17.237h4.424v23.051h-5.646l-8.818-17.238h-.064v17.238h-4.426v-23.05m31.668 0h5.217l9.05 23.05h-5.118l-1.984-5.285h-9.344l-2.015 5.285h-4.787l8.981-23.05Zm2.543 4.623h-.065l-3.338 9.51h6.738l-3.335-9.51m15.686-4.624h4.624v19.418H512v3.633h-13.573v-23.05"/>
</svg>
